X: 1
T: String Quartet in D Minor opus 42 no 1 mvt 1
C: Franz Joseph Haydn
%%abc-version 2.0
%%abcx-abcm2ps-target-version 5.9.1 (29 Sep 2008)
%%abc-creator hum2abc beta
%%abcx-conversion-date 2021/02/14 14:38:12
%%abc-copyright Copyright (c) 1994, 2000 Center for Computer Assisted Research in the Humanities
%%abc-edited-by Frances Bennion
%%abcx-initial-encoding-date 1997/04/15
%%gracespace 0 6 6
%%humdrum-veritas 698203649
%%humdrum-veritas-data 2506257120
%%linebreak <none>
%%barnumbers 0
L: 1/16
M: 2/4
N: Derived from op42-01.krn
Q: "Andante ed innocentemente"
%%staves [1 2 3 4]
V: 1
V: 2
V: 3 clef=alto
V: 4 clef=bass
K: F
[V:1]d2>A2 feed [I:setbarnb2]|
[V:2][A,2F2]z2 F2G2 |
[V:3]D2z2 D2E2 |
[V:4]D,,4 z4 |
[V:1]d2a2 a2a2 |
[V:2]A2z6 |
[V:3]F2z6 |
[V:4]z8 |
[V:1]e2>A2 gffe |
[V:2][E2^c2]z2 E2F2 |
[V:3][E2^C2]z2 C2D2 |
[V:4]A,,4 z4 |
[V:1]e2b2 b2b2 |
[V:2]G2z6 |
[V:3]E2z6 |
[V:4]z8 |
[V:1](3:2:2a2-a//g/f/e/d2 z2|
[V:2][D4d4] z4 |
[V:3]D,4 z4 |
[V:4]F,4 z4 |
[V:1](3:2:2b2-b//a/g/f/e2 z2|
[V:2]E4 z4 |
[V:3]D4 z4 |
[V:4]G,,4 z4 |
[V:1]f2az ^c2ez |
[V:2]d2Fz E2^Cz |
[V:3]A,2z2 A,2z2 |
[V:4]A,,2z2 A,2z2 |
[V:1]d2z6 |
[V:2]D2z6 |
[V:3]D,4 z4 |
[V:4]z2D,,2 F,,2A,,2 |
[V:1]z8 |
[V:2]z6 ^cd |
[V:3]D2>A,2 FEED |
[V:4]D,2F,2 A,2A,2 |
[V:1]z2g2 g2g2 |
[V:2]d2z6 |
[V:3]D2z6 |
[V:4]B,4 z4 |
[V:1]z8 |
[V:2]E2>C2 BAAG |
[V:3]B,2>A,2 G,2F,2 |
[V:4]C,8- |
[V:1]z2c'2 c'2c'2 |
[V:2]G4 z4 |
[V:3]E,4 z4 |
[V:4]C,4 z4 |
[V:1](3:2:2c'2-c'//b/a/g/f2 f2|
[V:2]z8 |
[V:3]A,CA,C A,CA,C |
[V:4]F,,8 |
[V:1]e2dc c2c2 |
[V:2]B2-B/A/G/F/ E2E2 |
[V:3]G,CB,C B,CB,C |
[V:4]C,4 z4 |
[V:1](3:2:2c'2-c'//b/a/g/f2 f2|
[V:2]F4 z4 |
[V:3]A,CA,C A,CA,C |
[V:4]F,,8 |
[V:1]e2dc c2c2 |
[V:2]B2-B/A/G/F/ E2E2 |
[V:3]G,CB,C B,CB,C |
[V:4]C,4 z4 |
[V:1](3:2:2c'2-c'//b/a/g/f2 _e2|
[V:2]F4 c4 |
[V:3]A,CA,C A,CA,C |
[V:4]F,,8 |
[V:1](3de^f(3gab (3c'd'c'(3bag |
[V:2]d2z6 |
[V:3]B,2z6 |
[V:4]B,,2z6 |
[V:1]f4 e2zc' |
[V:2]A4 G2za |
[V:3]C6 z2 |
[V:4]C,6 z2 |
[V:1]b2zb a2za |
[V:2]g2zg f2zf |
[V:3]z8 |
[V:4]z2C,2 z2C,2 |
[V:1]g2z6 |
[V:2]e2z6 |
[V:3]z8 |
[V:4]z8 |
[V:1]z8 |
[V:2]d4 _d4 |
[V:3]B8- |
[V:4]z8 |
[V:1]z8 |
[V:2]c8- |
[V:3]B8- |
[V:4]E,2>C,2 G,F,F,E, |
[V:1]f2>c2 aggf |
[V:2]c4 ABBc |
[V:3]B2A2 FGGA |
[V:4]F,4 z4 |
[V:1]e8 |
[V:2]B4 GAAB |
[V:3]G4 C4 |
[V:4]G,2>C,2 B,A,A,G, |
[V:1]f2>c2 c'bba |
[V:2]c8 |
[V:3]F,4 F4 |
[V:4]A,8 |
[V:1]aggb baac' |
[V:2]F2z6 |
[V:3]F2z2 F2z2 |
[V:4]B,2z2 C2z2 |
[V:1]c'b(3:2:2z4 z/a|
[V:2]z2>F2 EFF2 |
[V:3]F2z4 zF |
[V:4]D2z4 zC |
[V:1]aggb baac' |
[V:2]z8 |
[V:3]F2z2 F2z2 |
[V:4]B,2z2 C2z2 |
[V:1]c'b(3:2:2z4 z/a|
[V:2]z2>F2 EFF2 |
[V:3]F2z6 |
[V:4]D2z4 zC |
[V:1]aggd' c'=bag |
[V:2]z4 F4 |
[V:3]F4 D4 |
[V:4]=B,8 |
[V:1]f6 g2 |
[V:2]A4 B4 |
[V:3]C4 E,4 |
[V:4]C4 C,4 |
[V:1]f2zc A2zf |
[V:2]A2zA F2zA |
[V:3]F,CA,z2 CA,2 |
[V:4]F,A,F,z2 A,F,2 |
[V:1]e2zB G2zd |
[V:2]G2zG E2zB |
[V:3]zG,E,2 zB,G,2 |
[V:4]zE,C,2 zG,E,2 |
[V:1]zczB zAzG |
[V:2]zAzG zFzE |
[V:3]A,zDz CzCz |
[V:4]F,zB,z CzC,z |
[V:1]A2zA c2zf |
[V:2]F2zF A2zA |
[V:3]A,A,Cz2 CA,2 |
[V:4]F,F,A,z2 A,F,2 |
[V:1]e2zg b2zd' |
[V:2]G2ze g2zb |
[V:3]zEGz2 BG2 |
[V:4]zC,E,2 zG,E,2 |
[V:1]zc'zb zazg |
[V:2]zazg zfze |
[V:3]AzDz CzB,z |
[V:4]F,zB,z CzC,z |
[V:1]g4 f2z2 |
[V:2]e4 f2z2 |
[V:3]B,4 A,2z2 |
[V:4]F,2C,2 F,,2z2 |
[V:1]a2>c2 baag |
[V:2]f2>A2 gffe |
[V:3]z8 |
[V:4]z8 |
[V:1]g4 z4 |
[V:2]e4 z4 |
[V:3]G2>E2 BAAG |
[V:4]E,2>C,2 G,F,F,E, |
[V:1]g2>A2 aggf |
[V:2]e2>A2 feed |
[V:3]G4 A,4 |
[V:4]E,4 ^C,4 |
[V:1]f4 z4 |
[V:2]d4 z4 |
[V:3]D2>A,2 FEED |
[V:4]D,,2F,,A,, D,2A,2 |
[V:1]g2>d2 baag |
[V:2]z8 |
[V:3]D4 dccB |
[V:4]B,4 z2^F,2 |
[V:1]g4 z2=bc' |
[V:2]_e2>B2 gffe |
[V:3]B4 z4 |
[V:4]G,4 z2G,2 |
[V:1]c'4 z4 |
[V:2]_e2>_E2 cdde |
[V:3]G2>_E2 GFFE |
[V:4]C2>G,2 _EDDC |
[V:1]z8 |
[V:2]_e6 =e2 |
[V:3]_E2>G2 cBBA |
[V:4]C2C,2 z4 |
[V:1]f4 fgga |
[V:2]f2>F2 ABBc |
[V:3]A4 CB,B,A, |
[V:4]F,2>C,2 A,G,G,F, |
[V:1]a2>f2 abbc' |
[V:2]c2>A2 cBBA |
[V:3]A,4 F,G,G,A, |
[V:4]F,2F,,2 F,2F,2 |
[V:1]c'4 ^c'4 |
[V:2]A2>^G2 AGAG |
[V:3]A,8 |
[V:4]F,8 |
[V:1]d'4 ^d'4 |
[V:2]A2>D2 c=BBA |
[V:3]A,4 A,=B,B,C |
[V:4]F,,8 |
[V:1]e'6 ^d'2 |
[V:2]^G2>E2 dcc=B |
[V:3]E2=B,>^G =BAAG |
[V:4]E,,8- |
[V:1]e'6 ^d'2 |
[V:2]=B2>E2 dccB |
[V:3]^G2>E2 =BAAG |
[V:4]E,,8- |
[V:1]e'2z^d' e'2zd' |
[V:2]=B2zc _B2zc |
[V:3]^G2zA G2zA |
[V:4]E,,2z2 E,,2z2 |
[V:1]e'2z6 |
[V:2]=B2z6 |
[V:3]^G2z6 |
[V:4]E,,4 z4 |
[V:1](3:2:2e'2-e'//d'/c'/=b/a2 a2|
[V:2]z8 |
[V:3]CECE CECE |
[V:4]A,,8 |
[V:1]^g4 z4 |
[V:2]f2-f/e/d/c/ =B2B2 |
[V:3]DEDE DEDE |
[V:4]E,4 ^G,4 |
[V:1](3:2:2e'2-e'//d'/c'/=b/a2 a2|
[V:2]c4 z4 |
[V:3]CECE CECE |
[V:4]A,,8 |
[V:1]^c4 z2b2 |
[V:2]b2-b/a/g/f/ e2zg |
[V:3]G2-G/F/E/D/ ^C2z2 |
[V:4]E,4 z4 |
[V:1]a2zb a2z^g |
[V:2]f2zg f2zf |
[V:3]zFE2 zFE2 |
[V:4]zD^C2 zDC2 |
[V:1]a2z^g a2z^f |
[V:2]e2zf e2z^d |
[V:3]zFE2 zFE2 |
[V:4]zD^C2 zDC2 |
[V:1]g2z^f g2zf |
[V:2]e2z^d e2zd |
[V:3]zD^C2 zDC2 |
[V:4]zB,A,2 zB,A,2 |
[V:1]g2z^f gfgf |
[V:2]e2z^d eded |
[V:3]z8 |
[V:4]z8 |
[V:1]g2z6 |
[V:2]e2z6 |
[V:3]z2>D2 ^CDCD |
[V:4]z2B,2 A,B,A,B, |
[V:1]z8 |
[V:2]z8 |
[V:3]^C2z6 |
[V:4]A,2z6 |
[V:1]d2>A2 feed |
[V:2][F2A,2]z2 F2G2 |
[V:3]D2z2 D2E2 |
[V:4]D,,4 z4 |
[V:1]d2a2 a2a2 |
[V:2]A2z6 |
[V:3]F2z6 |
[V:4]z8 |
[V:1]e2>A2 gffe |
[V:2][^c2E2]z2 E2F2 |
[V:3][E2^C2]z2 C2D2 |
[V:4]A,,4 z4 |
[V:1]e2b2 b2b2 |
[V:2]G2z6 |
[V:3]E2z6 |
[V:4]z8 |
[V:1](3:2:2a2-a//g/f/e/d2 d2|
[V:2]z8 |
[V:3]A,FA,F A,FA,F |
[V:4]D,8 |
[V:1]^c2BA A2A2 |
[V:2]G2-G/F/E/D/ ^C2C2 |
[V:3]A,EA,E A,GA,G |
[V:4]A,4 z4 |
[V:1](3:2:2a2-a//g/f/e/d2 d2|
[V:2]D4 z4 |
[V:3]A,FA,F A,FA,F |
[V:4]D,,8 |
[V:1]^c2BA A2A2 |
[V:2]G2-G/F/E/D/ ^C2C2 |
[V:3]A,EA,E A,GA,G |
[V:4]A,,4 z4 |
[V:1](3:2:2a2-a//g/f/e/d2 d'2|
[V:2]D8 |
[V:3]F4 A4 |
[V:4]F,8 |
[V:1]c'bag fefd |
[V:2]D2E2 F2DF |
[V:3]G2z4 =B,2 |
[V:4]G,6 ^G,2 |
[V:1]d4 ^c2za |
[V:2]F4 E2zf |
[V:3]A,4 z4 |
[V:4]A,4 A,,2z2 |
[V:1]g2zg f2zf |
[V:2]e2ze d2zd |
[V:3]z8 |
[V:4]z2A,,2 z2A,,2 |
[V:1]e2z6 |
[V:2]^c2z6 |
[V:3]z8 |
[V:4]z8 |
[V:1]d4 c4 |
[V:2]F4 ^F4 |
[V:3]z4 _E4 |
[V:4]z4 A,4 |
[V:1]B2>G2 gfed |
[V:2]G8 |
[V:3]D8 |
[V:4]B,8 |
[V:1]^c6 d2 |
[V:2]G2>E2 BAGF |
[V:3]E2>^C2 GFED |
[V:4]A,8- |
[V:1]e2>A2 agfe |
[V:2]E4 z4 |
[V:3]^C4 z4 |
[V:4]A,4 z4 |
[V:1]eddf feeg |
[V:2]A2z2 B2z2 |
[V:3]F2z2 G2z2 |
[V:4]z8 |
[V:1]g^f(3:2:2z4 z/g|
[V:2]c2z6 |
[V:3]A2z6 |
[V:4]z2>_E,2 E,D,D,2 |
[V:1]g^ffa aggb |
[V:2]c2z2 d2z2 |
[V:3]A2z2 B2z2 |
[V:4]z8 |
[V:1]ba(3:2:2z4 z/b|
[V:2]d2z6 |
[V:3]^F2z6 |
[V:4]z2>_E,2 E,D,D,2 |
[V:1]baac' c'bba |
[V:2]d6 d2 |
[V:3]^F4 G2c2 |
[V:4]z8 |
[V:1]agza agg^f |
[V:2]d2z6 |
[V:3]B2z_E EDDC |
[V:4]z2>C2 CB,B,A, |
[V:1]^fgg=f feed |
[V:2]z8 |
[V:3]CDDC B,2F2 |
[V:4]A,B,B,A, G,2^G,2 |
[V:1]a2>b2 baa^g |
[V:2]^c2>d2 dccf |
[V:3]E2>F2 FEED |
[V:4]A,,8- |
[V:1]^gaab baag |
[V:2]feed d^ccf |
[V:3]D^CCF FEED |
[V:4]A,,8- |
[V:1]^gaab baag |
[V:2]feed dcc=B |
[V:3]D^CCF FEED |
[V:4]A,,8- |
[V:1]^g4 =g4 |
[V:2]=B4 _B2A2 |
[V:3]D4 ^C4 |
[V:4]A,,8 |
[V:1]f4 e2d2 |
[V:2]^G8 |
[V:3]D4 E2F2 |
[V:4]B,,8 |
[V:1](3:2:2d4-d/^c/d/e c|
[V:2]AG/A/BA G4 |
[V:3]FE/F/GF E4 |
[V:4]A,,8 |
[V:1]d2za f2zd' |
[V:2]F2zf d2zf |
[V:3]zAF2 zAF2 |
[V:4]zF,D,2 zF,D,2 |
[V:1]^c'2zg e2zb |
[V:2]e2ze ^c2zg |
[V:3]zE^C2 zEC2 |
[V:4]z^CA,2 z^C,A,,2 |
[V:1]zazg zfze |
[V:2]zfze zdz^c |
[V:3]F2B2 A2G2 |
[V:4]D,2G,2 A,2A,,2 |
[V:1]d2zf a2zd' |
[V:2]d2zd f2zf |
[V:3]zFA2 zAF2 |
[V:4]zD,F,2 zF,D,2 |
[V:1]^c'2ze g2zb |
[V:2]e2z^c e2zg |
[V:3]z^ce2 zE^C2 |
[V:4]zA,^C2 z^C,A,,2 |
[V:1]zazg zfze |
[V:2]zfze zdz^c |
[V:3]F2B2 A2G2 |
[V:4]D,2G,2 A,2A,,2 |
[V:1]d4 c4 |
[V:2]dFA2 zAc2 |
[V:3]FDF2 z^FA2 |
[V:4]D,2zD, D,,2zD, |
[V:1]B4 G4 |
[V:2]zGB2 zG,^C2 |
[V:3]zB,G2 zG,B,2 |
[V:4]D,,2zD, D,,2zD, |
[V:1]^F2z2 F2zF |
[V:2]D2z2 D2zD |
[V:3]A,2z2 A,2zA, |
[V:4]D,,2z2 D,,2zD,, |
[V:1]^F2z6 |]
[V:2]D2z6 |]
[V:3]A,2z6 |]
[V:4]D,,2z6 |]

